X:166
T:Cawler Herring. RH.166
T:Caller Herring,aka. RH.166
R:Air
S:Rev.R.Harrison’s MS,c1815,Cumbria
O:England
A:Temple Sowerby,Cumbria
C:by Nathaniel Gow
Z:vmp.Simon Wilson. Review PJH, 2008.
M:C
L:1/8
Q:2/4=70
K:D
A|d2d>dc2de|fBe>d c>ABc|\
d2d>dc2de|fgecd2z:|!
|:d’|.c’.b.a.g .f.e.d.d’|.c’.b.a.g .f.e.d.d’|\
.c’.b.a.g gfga|bBe>d cABc|!
d2d>dc2de|fBe>d cABc|\
d2d>dc2de|fgec”z added”d2z:|!
|:a|d’2d’>d’c’2dc|bagf efg^g|\
a2a>ag2ab|c’d’c’^ga2zf|!
g2ggf2ga|bBed cABc|\
d2d>dc2d>e|fgec” ditto”d2z:|

